X:236
T: Falscher Sinn (3-39), S. 119
N: P1011
O: Lothringen
S: PINCK, Louis: Verklingende Weisen, Bd3, Metz 1933]
R: Liebe, Werbung]
M: 3/4
L: 1/16
K: G
=F2F2 | _B8B4 | A8A4 | G8
G4 | =F8F4 | _B8B4 | d8c4 | cd8-d3 | z8
_B2c2 | d6d2d4 | _e4d4c4 | d8-d3G | G8z4
G12 | A12 | A8_B4 | c8
d4 | _B4A4G4 | A8A4 | G8

